packages/sources/assets/src/assets/flag-fj.svg

<svg width="28" height="20" viewBox="0 0 28 20" fill="none" xmlns="http://www.w3.org/2000/svg">
<rect width="28" height="20" rx="2" fill="white"/>
<mask id="mask0_503_3445" style="mask-type:alpha" maskUnits="userSpaceOnUse" x="0" y="0" width="28" height="20">
<rect width="28" height="20" rx="2" fill="white"/>
</mask>
<g mask="url(#mask0_503_3445)">
<rect width="28" height="20" fill="#79CFF6"/>
<rect width="12" height="9.33333" fill="url(#paint0_linear_503_3445)"/>
<path fill-rule="evenodd" clip-rule="evenodd" d="M17.3333 10C17.3333 8.00001 17.3333 5.33334 17.3333 5.33334H24C24 5.33334 24 8.00001 24 10C24 13.3333 20.6667 14.6667 20.6667 14.6667C20.6667 14.6667 17.3333 13.3333 17.3333 10Z" fill="white"/>
<mask id="mask1_503_3445" style="mask-type:alpha" maskUnits="userSpaceOnUse" x="17" y="5" width="7" height="10">
<path fill-rule="evenodd" clip-rule="evenodd" d="M17.3333 10C17.3333 8.00001 17.3333 5.33334 17.3333 5.33334H24C24 5.33334 24 8.00001 24 10C24 13.3333 20.6667 14.6667 20.6667 14.6667C20.6667 14.6667 17.3333 13.3333 17.3333 10Z" fill="white"/>
</mask>
<g mask="url(#mask1_503_3445)">
<path fill-rule="evenodd" clip-rule="evenodd" d="M19.3333 8.00001C19.3333 8.3682 19.0349 8.66668 18.6667 8.66668C18.2985 8.66668 18 8.3682 18 8.00001C18 7.63182 18.2985 7.33334 18.6667 7.33334C19.0349 7.33334 19.3333 7.63182 19.3333 8.00001ZM23.3333 8.00001C23.3333 8.3682 23.0349 8.66668 22.6667 8.66668C22.2985 8.66668 22 8.3682 22 8.00001C22 7.63182 22.2985 7.33334 22.6667 7.33334C23.0349 7.33334 23.3333 7.63182 23.3333 8.00001Z" fill="#2A915C"/>
<path fill-rule="evenodd" clip-rule="evenodd" d="M17.3333 5.33334H24V6.66668H21.3333V9.33334H24V10.6667H21.3333V14.6667H20V10.6667H17.3333V9.33334H20V6.66668H17.3333V5.33334Z" fill="#EB1D43"/>
</g>
<path d="M0 -0.333333H-0.901086L-0.21693 0.253086L4.33333 4.15331V5.16179L-0.193746 8.39542L-0.333333 8.49513V8.66667V9.33333V9.93475L0.176666 9.616L5.42893 6.33333H6.55984L11.0821 9.56351C11.176 9.6306 11.2886 9.66667 11.404 9.66667C11.9182 9.66667 12.1548 9.02698 11.7644 8.69237L7.66667 5.18002V4.17154L12.0542 1.03762C12.2294 0.912475 12.3333 0.710428 12.3333 0.495127V0V-0.601416L11.8233 -0.282666L6.57107 3H5.44016L0.860413 -0.271244L0.773488 -0.333333H0.666667H0Z" fill="#DB1E36" stroke="white" stroke-width="0.666667"/>
<path fill-rule="evenodd" clip-rule="evenodd" d="M0 3.33333V6H4.66667V9.33333C4.66667 9.70152 4.96514 10 5.33333 10H6.66667C7.03486 10 7.33333 9.70152 7.33333 9.33333V6H12C12.3682 6 12.6667 5.70152 12.6667 5.33333V4C12.6667 3.63181 12.3682 3.33333 12 3.33333H7.33333V0H4.66667V3.33333H0Z" fill="url(#paint1_linear_503_3445)"/>
<path fill-rule="evenodd" clip-rule="evenodd" d="M0 4H5.33333V3.33333V0H6.66667V3.33333V4H12V5.33333H6.66667V6V9.33333H5.33333V6V5.33333H0V4Z" fill="#DB1E36"/>
</g>
<defs>
<linearGradient id="paint0_linear_503_3445" x1="0" y1="0" x2="0" y2="9.33333" gradientUnits="userSpaceOnUse">
<stop stop-color="#042C90"/>
<stop offset="1" stop-color="#00247E"/>
</linearGradient>
<linearGradient id="paint1_linear_503_3445" x1="0" y1="0" x2="0" y2="10" gradientUnits="userSpaceOnUse">
<stop stop-color="white"/>
<stop offset="1" stop-color="#F0F0F0"/>
</linearGradient>
</defs>
</svg>

<svg width="28" height="20" fill="none" xmlns="http://www.w3.org/2000/svg"><rect width="28" height="20" rx="2" fill="#fff"/><mask id="a" style="mask-type:alpha" maskUnits="userSpaceOnUse" x="0" y="0" width="28" height="20"><rect width="28" height="20" rx="2" fill="#fff"/></mask><g mask="url(#a)"><path fill="#79CFF6" d="M0 0h28v20H0z"/><path fill="url(#b)" d="M0 0h12v9.333H0z"/><path fill-rule="evenodd" clip-rule="evenodd" d="M17.333 10V5.333H24V10c0 3.333-3.333 4.667-3.333 4.667S17.333 13.333 17.333 10Z" fill="#fff"/><mask id="c" style="mask-type:alpha" maskUnits="userSpaceOnUse" x="17" y="5" width="7" height="10"><path fill-rule="evenodd" clip-rule="evenodd" d="M17.333 10V5.333H24V10c0 3.333-3.333 4.667-3.333 4.667S17.333 13.333 17.333 10Z" fill="#fff"/></mask><g mask="url(#c)" fill-rule="evenodd" clip-rule="evenodd"><path d="M19.333 8A.667.667 0 1 1 18 8a.667.667 0 0 1 1.333 0Zm4 0A.667.667 0 1 1 22 8a.667.667 0 0 1 1.333 0Z" fill="#2A915C"/><path d="M17.333 5.333H24v1.334h-2.667v2.666H24v1.334h-2.667v4H20v-4h-2.667V9.333H20V6.667h-2.667V5.333Z" fill="#EB1D43"/></g><path d="M0-.333h-.901l.684.586 4.55 3.9v1.009L-.194 8.395l-.14.1v1.44l.51-.319L5.43 6.333h1.13l4.523 3.23a.554.554 0 0 0 .682-.87L7.667 5.18V4.172l4.387-3.134a.667.667 0 0 0 .28-.543V-.6l-.51.318L6.57 3H5.44L.86-.271.772-.333H0Z" fill="#DB1E36" stroke="#fff" stroke-width=".667"/><path fill-rule="evenodd" clip-rule="evenodd" d="M0 3.333V6h4.667v3.333c0 .369.298.667.666.667h1.334a.667.667 0 0 0 .666-.667V6H12a.667.667 0 0 0 .667-.667V4A.667.667 0 0 0 12 3.333H7.333V0H4.667v3.333H0Z" fill="url(#d)"/><path fill-rule="evenodd" clip-rule="evenodd" d="M0 4h5.333V0h1.334v4H12v1.333H6.667v4H5.333v-4H0V4Z" fill="#DB1E36"/></g><defs><linearGradient id="b" x1="0" y1="0" x2="0" y2="9.333" gradientUnits="userSpaceOnUse"><stop stop-color="#042C90"/><stop offset="1" stop-color="#00247E"/></linearGradient><linearGradient id="d" x1="0" y1="0" x2="0" y2="10" gradientUnits="userSpaceOnUse"><stop stop-color="#fff"/><stop offset="1" stop-color="#F0F0F0"/></linearGradient></defs></svg>
